X: 107
T: Fortuna desperata
N: Derived from Mar3006-Fortuna_desperata.krn
C: Johannes Martini
%%abc-version 2.0
%%abcx-abcm2ps-target-version 5.9.1 (29 Sep 2008)
%%abc-creator hum2abc beta
%%abcx-conversion-date 2019/02/17 07:19:43
%%abc-edited-by Jesse Rodin
%%abc-edited-by Chris Gage 10-30-2014
%%abcx-initial-encoding-date 2015/03/01/
%%humdrum-veritas 3527322771
%%humdrum-veritas-data 37322256
%%linebreak <none>
%%barnumbers 0
L: 1/4
M: 2/1
Q: 1/2=120
%%staves [1 2 3 4]
V: 1 clef=treble
V: 2 clef=treble-8
V: 3 clef=treble-8
V: 4 clef=bass
K: F
[V:1] F8 | 
[V:2] z8 | 
[V:3] z4z2F2 | 
[V:4] z2F,,2F,,3G,, | 
[V:1] F4E4 | 
[V:2] z8 | 
[V:3] F3GA3B | 
[V:4] A,,3B,,C,3F,, | 
[V:1] C8 | 
[V:2] z8 | 
[V:3] c3FF2ED | 
[V:4] F,,2F,,2F,,3G,, | 
[V:1] z4G4 | 
[V:2] z8 | 
[V:3] C2F4E2 | 
[V:4] A,,3B,,C,3F,, | 
[V:1] A8 | 
[V:2] z4z2F2 | 
[V:3] F3EC4 | 
[V:4] F,,2F,,2F,,3G,, | 
[V:1] A4A4 | 
[V:2] F3GA3B | 
[V:3] z2c2c3B | 
[V:4] A,,3B,,C,3F,, | 
[V:1] A8 | 
[V:2] c3FF2B2 | 
[V:3] A3Bc2d2 | 
[V:4] F,,4z4 | 
[V:1] G8 | 
[V:2] B3cd3e | 
[V:3] G3AB2c2 | 
[V:4] z8 | 
[V:1] F8- | 
[V:2] f3BB4 | 
[V:3] F4z2B,2 | 
[V:4] z2B,,2B,,3C, | 
[V:1] F4D4 | 
[V:2] z2B4A2 | 
[V:3] B,3CD3E | 
[V:4] D,3E,F,3B,, | 
[V:1] D8 | 
[V:2] B2f3ed2- | 
[V:3] F3B,B,4 | 
[V:4] B,,4z4 | 
[V:1] E4D4 | 
[V:2] dcc4=B2 | 
[V:3] C2E2F2G2 | 
[V:4] z8 | 
[V:1] C4F4- | 
[V:2] c2A3Bc2 | 
[V:3] C4z2F2 | 
[V:4] z2F,,2F,,3G,, | 
[V:1] F4E4 | 
[V:2] C3DEFGA | 
[V:3] F3GA3B | 
[V:4] A,,3B,,C,3F,, | 
[V:1] F8 | 
[V:2] F2EDC2F2 | 
[V:3] c3FF4- | 
[V:4] F,,2F,,2F,,3G,, | 
[V:1] z8 | 
[V:2] F3GA3B | 
[V:3] F4E4 | 
[V:4] A,,3B,,C,3F,, | 
[V:1] c8 | 
[V:2] c3FF2f2- | 
[V:3] A8 | 
[V:4] F,,3G,,A,,3B,, | 
[V:1] c4A4 | 
[V:2] f2e2f4 | 
[V:3] G4F4 | 
[V:4] C,3F,,F,,4 | 
[V:1] =B8 | 
[V:2] d2g3fd2- | 
[V:3] G4E2G2- | 
[V:4] z8 | 
[V:1] d4c4 | 
[V:2] def3ef2 | 
[V:3] G2F3GA2- | 
[V:4] z4z2F,2 | 
[V:1] A8 | 
[V:2] c4z4 | 
[V:3] AGFEF2D2 | 
[V:4] F,3G,A,3B, | 
[V:1] z4A4 | 
[V:2] c2c3de2- | 
[V:3] C2F4E2 | 
[V:4] C3F,F,2C,2 | 
[V:1] G6F2 | 
[V:2] efg3cc2- | 
[V:3] G4C3D | 
[V:4] C,3D,E,3F, | 
[V:1] E4E4 | 
[V:2] c2B2c3B | 
[V:3] E3FG4 | 
[V:4] G,3C,C,2F,,2 | 
[V:1] F4z4 | 
[V:2] AGc4BA | 
[V:3] F2A3GF2- | 
[V:4] F,,3G,,A,,3B,, | 
[V:1] G4A4 | 
[V:2] G4F4 | 
[V:3] F2E2F3B, | 
[V:4] C,3F,,F,,4 | 
[V:1] B8- | 
[V:2] z2B2B3c | 
[V:3] B,3CD3E | 
[V:4] z4z2B,,2 | 
[V:1] B4A4 | 
[V:2] d3ef3e | 
[V:3] F2B,2F2G2 | 
[V:4] B,,3C,D,3E, | 
[V:1] A4F4 | 
[V:2] c2f2d2f2- | 
[V:3] A4B2d2- | 
[V:4] F,3B,,B,,4 | 
[V:1] G8 | 
[V:2] fedcd2cB | 
[V:3] dcBAB2AG | 
[V:4] z8 | 
[V:1] A6=B2 | 
[V:2] c6A2- | 
[V:3] F2A3GFE | 
[V:4] z2F,2F,3G, | 
[V:1] c4c4 | 
[V:2] A2GFG4 | 
[V:3] F2EDC2E2 | 
[V:4] A,3B,C3F, | 
[V:1] d4c2B2- | 
[V:2] A6B2 | 
[V:3] D2F2F2G2 | 
[V:4] F,4z4 | 
[V:1] B2A2A4- | 
[V:2] c4F2c2- | 
[V:3] A3Bc3F | 
[V:4] z2F,,2F,,3G,, | 
[V:1] A4G4 | 
[V:2] c2d2e4 | 
[V:3] F4z2E2 | 
[V:4] A,,3B,,C,3F,, | 
[V:1] A8 | 
[V:2] c4z2F2 | 
[V:3] F2EDC2D2 | 
[V:4] F,,2F,,2F,,3G,, | 
[V:1] z8 | 
[V:2] F3GA3B | 
[V:3] C2F4E2 | 
[V:4] A,,3B,,C,3F,, | 
[V:1] A6GF | 
[V:2] c3FF2z2 | 
[V:3] F2c3BA2- | 
[V:4] F,,4F,,3G,, | 
[V:1] E8 | 
[V:2] c2d2efg2 | 
[V:3] A2GFE4 | 
[V:4] A,,3B,,C,4 | 
[V:1] C8 | 
[V:2] f2a3gf2- | 
[V:3] z2c3BA2 | 
[V:4] F,,3G,,A,,3B,, | 
[V:1] z4C4 | 
[V:2] f2e2f2F2 | 
[V:3] G4F4 | 
[V:4] C,3F,,F,,4 | 
[V:1] D4F4 | 
[V:2] F3GA3B | 
[V:3] D8 | 
[V:4] z2F,2F,3G, | 
[V:1] E8 | 
[V:2] c3BG4 | 
[V:3] z4C4 | 
[V:4] A,3B,C3F, | 
[V:1] F4G4- | 
[V:2] z2c3de2- | 
[V:3] D2F2E3C | 
[V:4] F,3C,C,3D, | 
[V:1] G2F2E2D2 | 
[V:2] edc4B2 | 
[V:3] C3DE3F | 
[V:4] E,3F,G,3C, | 
[V:1] E8 | 
[V:2] c6BA | 
[V:3] G3CC4 | 
[V:4] C,4z4 | 
[V:1] D4F4- | 
[V:2] B2AGF4 | 
[V:3] G4A4 | 
[V:4] z4z2F,,2 | 
[V:1] F2E2D4 | 
[V:2] z8 | 
[V:3] z2F2F3G | 
[V:4] F,,3G,,A,,3B,, | 
[V:1] C8 | 
[V:2] z2G2A2c2- | 
[V:3] A3Bc3F | 
[V:4] C,3F,,F,,4 | 
[V:1] D8 | 
[V:2] c2=BA=B4 | 
[V:3] F2E2D4 | 
[V:4] z8 | 
[V:1] E8 | 
[V:2] cdefg2c2- | 
[V:3] C2c3BA2- | 
[V:4] z4z2F,2 | 
[V:1] z4F4 | 
[V:2] c2d2c2f2- | 
[V:3] AGF3ED2 | 
[V:4] F,3G,A,3B, | 
[V:1] G4A4 | 
[V:2] f2e2f2F2 | 
[V:3] C4z2D2 | 
[V:4] C3F,F,4 | 
[V:1] B6A2 | 
[V:2] F3GA3B | 
[V:3] B,2_E2D=EFG | 
[V:4] z8 | 
[V:1] G2F2F4- | 
[V:2] c3FF4 | 
[V:3] C2F2C2c2- | 
[V:4] z2F,,2F,,3G,, | 
[V:1] F4E4 | 
[V:2] c3dc4 | 
[V:3] c2BAG4 | 
[V:4] A,,3B,,C,3F,, | 
[V:1] F8 |]  
[V:2] A8 |]  
[V:3] F8 |]  
[V:4] F,,8 |]  



